epam-assets/icon-sources/18/file-attachment.svg

<svg width="18" height="18" viewBox="0 0 18 18" fill="none" xmlns="http://www.w3.org/2000/svg">
<g id="18/file-attachment">
<path id="icon" d="M9.375 16.5C8.225 16.5 7.25 16.1 6.45 15.3C5.65 14.5 5.25 13.525 5.25 12.375V4.5C5.25 3.675 5.54375 2.96875 6.13125 2.38125C6.71875 1.79375 7.425 1.5 8.25 1.5C9.075 1.5 9.78125 1.79375 10.3687 2.38125C10.9562 2.96875 11.25 3.675 11.25 4.5V11.625C11.25 12.15 11.0687 12.5938 10.7062 12.9562C10.3437 13.3187 9.9 13.5 9.375 13.5C8.85 13.5 8.40625 13.3187 8.04375 12.9562C7.68125 12.5938 7.5 12.15 7.5 11.625V4.5H8.625V11.625C8.625 11.8375 8.697 12.0155 8.841 12.159C8.9845 12.303 9.1625 12.375 9.375 12.375C9.5875 12.375 9.76575 12.303 9.90975 12.159C10.0533 12.0155 10.125 11.8375 10.125 11.625V4.5C10.125 3.975 9.94375 3.53125 9.58125 3.16875C9.21875 2.80625 8.775 2.625 8.25 2.625C7.725 2.625 7.28125 2.80625 6.91875 3.16875C6.55625 3.53125 6.375 3.975 6.375 4.5V12.375C6.375 13.2 6.66875 13.9063 7.25625 14.4938C7.84375 15.0813 8.55 15.375 9.375 15.375C10.2 15.375 10.9062 15.0813 11.4937 14.4938C12.0812 13.9063 12.375 13.2 12.375 12.375V4.5H13.5V12.375C13.5 13.525 13.1 14.5 12.3 15.3C11.5 16.1 10.525 16.5 9.375 16.5Z" fill="#6C6F80"/>
</g>
</svg>

<svg xmlns="http://www.w3.org/2000/svg" width="18" height="18" fill="none" viewBox="0 0 18 18">
  <path fill="#6C6F80" d="M9.375 16.5c-1.15 0-2.125-.4-2.925-1.2-.8-.8-1.2-1.775-1.2-2.925V4.5c0-.825.294-1.531.881-2.119A2.889 2.889 0 0 1 8.25 1.5c.825 0 1.531.294 2.119.881.587.588.881 1.294.881 2.119v7.125c0 .525-.181.969-.544 1.331a1.81 1.81 0 0 1-1.331.544 1.81 1.81 0 0 1-1.331-.544 1.81 1.81 0 0 1-.544-1.331V4.5h1.125v7.125c0 .213.072.39.216.534a.724.724 0 0 0 .534.216c.213 0 .39-.072.535-.216a.725.725 0 0 0 .215-.534V4.5a1.81 1.81 0 0 0-.544-1.331 1.81 1.81 0 0 0-1.331-.544 1.81 1.81 0 0 0-1.331.544A1.81 1.81 0 0 0 6.375 4.5v7.875c0 .825.294 1.531.881 2.119a2.889 2.889 0 0 0 2.119.881c.825 0 1.531-.294 2.119-.881a2.889 2.889 0 0 0 .881-2.119V4.5H13.5v7.875c0 1.15-.4 2.125-1.2 2.925-.8.8-1.775 1.2-2.925 1.2Z"/>
</svg>
